X:2483
T:Cancioneiro de Casto Sampedro: N\'umero 332
T:Ribeirana de Pontevedra
O:Galicia (Spain)
B:Cancioneiro de Casto Sampedro
Z:Transcrito por Jos\'e J. Presedo
Z:Covertido de Midi a abc por Antonio-Nil
N:http://www.arrakis.es/~jpresedo/
M: 4/4
L: 1/8
Q:1/4=200
K:C % 0 sharps
z4 EF GE|GG EG GE Cz|EG GE GG EG|^A2 =Az FA AF|
Ac FA AF Ac|FA AF Ac FA|GE Cz EG GE|GG EG GE Cz|
EG GE GG EG|^A2 =Az FA AF|Ac FA AF Ac|FA AF Ac FA|
GE Cz EG c2|cA BA GE Cz|EG GF ED EF|A2 Gz EG c2|
cA BA GE Cz|EG GF ED ED|C3z EG GE|GG EG GE Cz|
EG GE GG EG|^A2 =Az FA AF|Ac FA AF Ac|FA AF Ac FA|
GE Cz EG GE|GG EG GE Cz|EG GE GG EG|^A2 =Az FA AF|
Ac FA AF Ac|FA AF Ac FA|GE Cz EG c2|cA BA GE Cz|
EG GF ED EF|A2 Gz EG c2|cA BA GE Cz|EG GF ED ED|
C3z EG GE|GG EG GE Cz|EG GE GG EG|^A2 =Az FA AF|
Ac FA AF Ac|FA AF Ac FA|GE Cz EG GE|GG EG GE Cz|
EG GE GG EG|^A2 =Az FA AF|Ac FA AF Ac|FA AF Ac FA|
GE Cz EG c2|cA BA GE Cz|EG GF ED EF|A2 Gz EG c2|
cA BA GE Cz|EG GF ED ED|C3z EG GE|GG EG GE Cz|
EG GE GG EG|^A2 =Az FA AF|Ac FA AF Ac|FA AF Ac FA|
GE Cz EG GE|GG EG GE Cz|EG GE GG EG|^A2 =Az FA AF|
Ac FA AF Ac|FA AF Ac FA|GE Cz EG c2|cA BA GE Cz|
EG GF ED EF|A2 Gz EG c2|cA BA GE Cz|EG GF ED ED|
C3


